flaticon/essential/smartphone-3.svg

<svg xmlns="http://www.w3.org/2000/svg" width="32" height="32" viewBox="0 0 24 24">
    <path d="M2.800781 15.601562C1.917969 15.601562 1.199219 16.316406 1.199219 17.199219 1.199219 18.082031 1.917969 18.800781 2.800781 18.800781 3.683594 18.800781 4.398438 18.082031 4.398438 17.199219 4.398438 16.316406 3.683594 15.601562 2.800781 15.601562zM2.800781 18C2.359375 18 2 17.640625 2 17.199219 2 16.757812 2.359375 16.398438 2.800781 16.398438 3.242188 16.398438 3.601562 16.757812 3.601562 17.199219 3.601562 17.640625 3.242188 18 2.800781 18zM22.398438 15.199219C22.179688 15.199219 22 15.378906 22 15.601562L22 17.199219C22 17.421875 22.179688 17.601562 22.398438 17.601562 22.621094 17.601562 22.800781 17.421875 22.800781 17.199219L22.800781 15.601562C22.800781 15.378906 22.621094 15.199219 22.398438 15.199219zM22.398438 18C22.179688 18 22 18.179688 22 18.398438L22 18.800781C22 19.019531 22.179688 19.199219 22.398438 19.199219 22.621094 19.199219 22.800781 19.019531 22.800781 18.800781L22.800781 18.398438C22.800781 18.179688 22.621094 18 22.398438 18zM14.398438 2.398438L14 2.398438C13.777344 2.398438 13.601562 2.578125 13.601562 2.800781 13.601562 3.019531 13.777344 3.199219 14 3.199219L14.398438 3.199219C14.621094 3.199219 14.800781 3.019531 14.800781 2.800781 14.800781 2.578125 14.621094 2.398438 14.398438 2.398438zM20.398438 2.398438C20.179688 2.398438 20 2.578125 20 2.800781 20 3.019531 20.179688 3.199219 20.398438 3.199219L20.800781 3.199219C21.019531 3.199219 21.199219 3.019531 21.199219 2.800781 21.199219 2.578125 21.019531 2.398438 20.800781 2.398438zM22 2.398438C21.777344 2.398438 21.601562 2.578125 21.601562 2.800781 21.601562 3.019531 21.777344 3.199219 22 3.199219L22.398438 3.199219C22.621094 3.199219 22.800781 3.019531 22.800781 2.800781 22.800781 2.578125 22.621094 2.398438 22.398438 2.398438zM16 2.398438L15.601562 2.398438C15.378906 2.398438 15.199219 2.578125 15.199219 2.800781 15.199219 3.019531 15.378906 3.199219 15.601562 3.199219L16 3.199219C16.222656 3.199219 16.398438 3.019531 16.398438 2.800781 16.398438 2.578125 16.222656 2.398438 16 2.398438zM18.800781 2.398438C18.578125 2.398438 18.398438 2.578125 18.398438 2.800781 18.398438 3.019531 18.578125 3.199219 18.800781 3.199219L19.199219 3.199219C19.421875 3.199219 19.601562 3.019531 19.601562 2.800781 19.601562 2.578125 19.421875 2.398438 19.199219 2.398438zM17.601562 2.398438L17.199219 2.398438C16.980469 2.398438 16.800781 2.578125 16.800781 2.800781 16.800781 3.019531 16.980469 3.199219 17.199219 3.199219L17.601562 3.199219C17.820312 3.199219 18 3.019531 18 2.800781 18 2.578125 17.820312 2.398438 17.601562 2.398438zM12.800781 2.398438L12.398438 2.398438C12.179688 2.398438 12 2.578125 12 2.800781 12 3.019531 12.179688 3.199219 12.398438 3.199219L12.800781 3.199219C13.019531 3.199219 13.199219 3.019531 13.199219 2.800781 13.199219 2.578125 13.019531 2.398438 12.800781 2.398438zM12.800781 2.398438"/>
    <path d="M23.960938 11.792969C23.910156 11.558594 23.8125 11.34375 23.679688 11.152344 23.859375 11.117188 24 10.960938 24 10.769531L24 10.371094C24 10.152344 23.820312 9.972656 23.601562 9.972656 23.378906 9.972656 23.199219 10.152344 23.199219 10.371094L23.199219 10.691406C23.195312 10.6875 23.191406 10.683594 23.183594 10.679688 23.113281 10.636719 23.039062 10.59375 22.964844 10.558594 22.941406 10.550781 22.917969 10.539062 22.894531 10.53125 22.875 10.523438 22.859375 10.511719 22.84375 10.507812 22.828125 10.5 22.8125 10.503906 22.800781 10.5 22.621094 10.441406 22.433594 10.398438 22.238281 10.398438L11.542969 10.398438C11.472656 10.28125 11.347656 10.199219 11.199219 10.199219 11.054688 10.199219 10.929688 10.28125 10.859375 10.398438L1.761719 10.398438C.789062 10.398438 0 11.191406 0 12.160156L0 22.238281C0 23.210938.789062 24 1.761719 24L22.238281 24C23.210938 24 24 23.210938 24 22.238281L24 11.960938C24 11.902344 23.984375 11.84375 23.960938 11.792969zM11.398438 11.199219L20.800781 11.199219 20.800781 23.199219 5.601562 23.199219 5.601562 11.199219zM.800781 22.238281L.800781 12.160156C.800781 11.632812 1.230469 11.199219 1.761719 11.199219L4.800781 11.199219 4.800781 23.199219 1.761719 23.199219C1.230469 23.199219.800781 22.769531.800781 22.238281zM23.199219 22.238281C23.199219 22.769531 22.769531 23.199219 22.238281 23.199219L21.601562 23.199219 21.601562 11.199219 22.238281 11.199219C22.359375 11.199219 22.476562 11.226562 22.585938 11.265625 22.65625 11.292969 22.722656 11.328125 22.785156 11.375 23.035156 11.546875 23.199219 11.835938 23.199219 12.160156zM23.199219 9.179688C23.199219 9.402344 23.378906 9.578125 23.601562 9.578125 23.820312 9.578125 24 9.402344 24 9.179688L24 8.78125C24 8.5625 23.820312 8.382812 23.601562 8.382812 23.378906 8.382812 23.199219 8.5625 23.199219 8.78125zM23.199219 6C23.199219 6.222656 23.378906 6.402344 23.601562 6.402344 23.820312 6.402344 24 6.222656 24 6L24 5.605469C24 5.382812 23.820312 5.203125 23.601562 5.203125 23.378906 5.203125 23.199219 5.382812 23.199219 5.605469zM18.679688.800781L19.078125.800781C19.300781.800781 19.480469.621094 19.480469.398438 19.480469.179688 19.300781 0 19.078125 0L18.679688 0C18.460938 0 18.28125.179688 18.28125.398438 18.28125.621094 18.460938.800781 18.679688.800781zM21.859375.800781L22.257812.800781C22.480469.800781 22.648438.621094 22.648438.398438 22.648438.179688 22.460938 0 22.238281 0L21.859375 0C21.640625 0 21.460938.179688 21.460938.398438 21.460938.621094 21.640625.800781 21.859375.800781zM20.269531.800781L20.667969.800781C20.890625.800781 21.070312.621094 21.070312.398438 21.070312.179688 20.890625 0 20.667969 0L20.269531 0C20.050781 0 19.871094.179688 19.871094.398438 19.871094.621094 20.050781.800781 20.269531.800781zM23.128906 1.398438C23.191406 1.550781 23.339844 1.644531 23.5 1.644531 23.546875 1.644531 23.601562 1.636719 23.648438 1.613281 23.855469 1.53125 23.953125 1.296875 23.867188 1.09375 23.804688.933594 23.714844.785156 23.605469.652344 23.46875.480469 23.214844.453125 23.042969.59375 22.871094.734375 22.847656.984375 22.984375 1.15625 23.042969 1.230469 23.09375 1.308594 23.128906 1.398438zM23.601562 4.8125C23.820312 4.8125 24 4.632812 24 4.410156L24 4.011719C24 3.792969 23.820312 3.613281 23.601562 3.613281 23.378906 3.613281 23.199219 3.792969 23.199219 4.011719L23.199219 4.410156C23.199219 4.632812 23.378906 4.8125 23.601562 4.8125zM23.199219 7.589844C23.199219 7.8125 23.378906 7.992188 23.601562 7.992188 23.820312 7.992188 24 7.8125 24 7.589844L24 7.195312C24 6.972656 23.820312 6.792969 23.601562 6.792969 23.378906 6.792969 23.199219 6.972656 23.199219 7.195312zM23.601562 2.023438C23.378906 2.023438 23.199219 2.203125 23.199219 2.425781L23.199219 2.820312C23.199219 3.042969 23.378906 3.222656 23.601562 3.222656 23.820312 3.222656 24 3.042969 24 2.820312L24 2.425781C24 2.203125 23.820312 2.023438 23.601562 2.023438zM11.199219 5.03125C11.421875 5.03125 11.601562 4.851562 11.601562 4.628906L11.601562 4.234375C11.601562 4.011719 11.421875 3.832031 11.199219 3.832031 10.980469 3.832031 10.800781 4.011719 10.800781 4.234375L10.800781 4.628906C10.800781 4.851562 10.980469 5.03125 11.199219 5.03125zM11.199219 6.621094C11.421875 6.621094 11.601562 6.441406 11.601562 6.21875L11.601562 5.824219C11.601562 5.601562 11.421875 5.421875 11.199219 5.421875 10.980469 5.421875 10.800781 5.601562 10.800781 5.824219L10.800781 6.21875C10.800781 6.441406 10.980469 6.621094 11.199219 6.621094zM11.199219 9.800781C11.421875 9.800781 11.601562 9.621094 11.601562 9.398438L11.601562 9.003906C11.601562 8.78125 11.421875 8.601562 11.199219 8.601562 10.980469 8.601562 10.800781 8.78125 10.800781 9.003906L10.800781 9.398438C10.800781 9.621094 10.980469 9.800781 11.199219 9.800781zM17.089844.800781L17.488281.800781C17.710938.800781 17.890625.621094 17.890625.398438 17.890625.179688 17.710938 0 17.488281 0L17.089844 0C16.871094 0 16.691406.179688 16.691406.398438 16.691406.621094 16.871094.800781 17.089844.800781zM11.199219 3.441406C11.421875 3.441406 11.601562 3.261719 11.601562 3.039062L11.601562 2.644531C11.601562 2.421875 11.421875 2.242188 11.199219 2.242188 10.980469 2.242188 10.800781 2.421875 10.800781 2.644531L10.800781 3.039062C10.800781 3.261719 10.980469 3.441406 11.199219 3.441406zM11.199219 8.210938C11.421875 8.210938 11.601562 8.03125 11.601562 7.808594L11.601562 7.414062C11.601562 7.191406 11.421875 7.011719 11.199219 7.011719 10.980469 7.011719 10.800781 7.191406 10.800781 7.414062L10.800781 7.808594C10.800781 8.03125 10.980469 8.210938 11.199219 8.210938zM15.503906.800781L15.898438.800781C16.121094.800781 16.300781.621094 16.300781.398438 16.300781.179688 16.121094 0 15.898438 0L15.503906 0C15.28125 0 15.101562.179688 15.101562.398438 15.101562.621094 15.28125.800781 15.503906.800781zM13.910156.800781L14.308594.800781C14.53125.800781 14.710938.621094 14.710938.398438 14.710938.179688 14.53125 0 14.308594 0L13.910156 0C13.691406 0 13.511719.179688 13.511719.398438 13.511719.621094 13.691406.800781 13.910156.800781zM11.144531 1.84375C11.175781 1.851562 11.207031 1.851562 11.234375 1.851562 11.417969 1.851562 11.582031 1.726562 11.625 1.542969 11.644531 1.453125 11.679688 1.367188 11.726562 1.285156 11.835938 1.09375 11.769531.847656 11.578125.738281 11.386719.628906 11.140625.695312 11.03125.886719 10.945312 1.035156 10.882812 1.195312 10.84375 1.363281 10.796875 1.578125 10.929688 1.792969 11.144531 1.84375zM12.324219.820312C12.347656.820312 12.371094.820312 12.394531.8125 12.449219.804688 12.503906.800781 12.5625.800781L12.71875.800781C12.941406.800781 13.121094.621094 13.121094.398438 13.121094.179688 12.941406 0 12.71875 0L12.5625 0C12.457031 0 12.355469.0078125 12.253906.0273438 12.035156.0664062 11.890625.273438 11.929688.488281 11.964844.683594 12.132812.820312 12.324219.820312zM1.601562 8.800781C1.820312 8.800781 2 8.621094 2 8.398438 2 5.972656 3.972656 4 6.398438 4L7.433594 4 5.71875 5.71875C5.5625 5.875 5.5625 6.125 5.71875 6.28125 5.796875 6.359375 5.898438 6.398438 6 6.398438 6.101562 6.398438 6.203125 6.359375 6.28125 6.28125L8.683594 3.882812C8.71875 3.847656 8.75 3.800781 8.769531 3.753906 8.808594 3.65625 8.808594 3.542969 8.769531 3.445312 8.75 3.398438 8.71875 3.355469 8.683594 3.316406L6.28125.917969C6.125.761719 5.875.761719 5.71875.917969 5.5625 1.074219 5.5625 1.328125 5.71875 1.484375L7.433594 3.199219 6.398438 3.199219C3.53125 3.199219 1.199219 5.53125 1.199219 8.398438 1.199219 8.621094 1.378906 8.800781 1.601562 8.800781zM1.601562 8.800781"/>
</svg>

<svg xmlns="http://www.w3.org/2000/svg" width="32" height="32" viewBox="0 0 24 24">
    <path d="M2.8 15.602a1.6 1.6 0 0 0-1.6 1.597c0 .883.718 1.602 1.6 1.602a1.6 1.6 0 0 0 0-3.2zM2.8 18a.802.802 0 0 1 0-1.602.802.802 0 0 1 0 1.602zm0 0M22.398 15.2a.401.401 0 0 0-.398.402v1.597a.401.401 0 1 0 .8 0v-1.597a.402.402 0 0 0-.402-.403zm0 0M22.398 18a.4.4 0 0 0-.398.398v.403a.4.4 0 0 0 .8 0v-.403a.401.401 0 0 0-.402-.398zm0 0M14.398 2.398H14a.398.398 0 0 0-.398.403c0 .219.175.398.398.398h.398a.401.401 0 1 0 0-.8zm0 0M20.398 2.398a.401.401 0 0 0 0 .801h.403a.4.4 0 0 0 0-.8zm0 0M22 2.398a.398.398 0 0 0-.398.403c0 .219.175.398.398.398h.398a.401.401 0 1 0 0-.8zm0 0M16 2.398h-.398a.401.401 0 0 0 0 .8L16 3.2c.223 0 .398-.18.398-.398A.398.398 0 0 0 16 2.398zm0 0M18.8 2.398a.401.401 0 0 0 0 .8l.4.001a.401.401 0 1 0 0-.8zm0 0M17.602 2.398h-.403a.401.401 0 0 0 0 .801h.403a.4.4 0 0 0 0-.8zm0 0M12.8 2.398h-.402a.401.401 0 0 0 0 .801h.403a.4.4 0 0 0 0-.8zm0 0"/>
    <path d="M23.96 11.793a1.783 1.783 0 0 0-.28-.64.393.393 0 0 0 .32-.383v-.399a.4.4 0 0 0-.8 0v.32l-.016-.011a2.39 2.39 0 0 0-.22-.121c-.023-.008-.046-.02-.07-.028-.019-.008-.035-.02-.05-.023-.016-.008-.032-.004-.043-.008a1.813 1.813 0 0 0-.563-.102H11.543a.4.4 0 0 0-.344-.199.4.4 0 0 0-.34.2H1.762C.789 10.398 0 11.19 0 12.16v10.078C0 23.211.79 24 1.762 24h20.476c.973 0 1.762-.79 1.762-1.762V11.961a.408.408 0 0 0-.04-.168zm-12.562-.594h9.403v12H5.6v-12zM.801 22.24V12.16c0-.527.43-.96.96-.96h3.04v12H1.76a.96.96 0 0 1-.96-.962zm22.398 0a.96.96 0 0 1-.96.96h-.637v-12h.636c.121 0 .239.028.348.067.07.027.137.062.2.109.25.172.413.46.413.785zm0 0M23.2 9.18c0 .222.179.398.402.398A.398.398 0 0 0 24 9.18V8.78a.4.4 0 0 0-.8 0zm0 0M23.2 6a.401.401 0 0 0 .8 0v-.395a.401.401 0 1 0-.8 0zm0 0M18.68.8h.398a.401.401 0 0 0 0-.8h-.398a.4.4 0 0 0 0 .8zm0 0M21.86.8h.398c.222 0 .39-.179.39-.402a.408.408 0 0 0-.41-.398h-.379a.4.4 0 0 0 0 .8zm0 0M20.27.8h.398a.401.401 0 0 0 0-.8h-.398a.4.4 0 0 0 0 .8zm0 0M23.129 1.398a.4.4 0 0 0 .738-.304 1.628 1.628 0 0 0-.262-.442.398.398 0 0 0-.562-.058.402.402 0 0 0-.059.562c.059.074.11.153.145.242zm0 0M23.602 4.813c.218 0 .398-.18.398-.403v-.398a.4.4 0 0 0-.8 0v.398c0 .223.179.402.402.402zm0 0M23.2 7.59a.401.401 0 0 0 .8 0v-.395a.401.401 0 1 0-.8 0zm0 0M23.602 2.023a.402.402 0 0 0-.403.403v.394a.401.401 0 0 0 .8 0l.001-.394a.401.401 0 0 0-.398-.403zm0 0M11.2 5.031c.222 0 .402-.18.402-.402v-.395a.401.401 0 0 0-.8 0l-.001.395c0 .223.18.402.398.402zm0 0M11.2 6.621c.222 0 .402-.18.402-.402v-.395a.401.401 0 0 0-.8 0l-.001.395c0 .222.18.402.398.402zm0 0M11.2 9.8c.222 0 .402-.179.402-.402v-.394a.401.401 0 0 0-.8 0l-.001.394c0 .223.18.403.398.403zm0 0M17.09.8h.398a.401.401 0 0 0 0-.8h-.398a.4.4 0 0 0 0 .8zm0 0M11.2 3.441c.222 0 .402-.18.402-.402v-.394a.401.401 0 0 0-.8 0l-.001.394c0 .223.18.402.398.402zm0 0M11.2 8.21c.222 0 .402-.179.402-.401v-.395a.401.401 0 0 0-.8 0l-.001.395c0 .222.18.402.398.402zm0 0M15.504.8h.394a.401.401 0 0 0 0-.8h-.394a.401.401 0 1 0 0 .8zm0 0M13.91.8h.399a.401.401 0 0 0 0-.8h-.399a.4.4 0 0 0 0 .8zm0 0M11.145 1.844c.03.008.062.008.09.008a.4.4 0 0 0 .39-.309.91.91 0 0 1 .102-.258.402.402 0 0 0-.149-.547.402.402 0 0 0-.547.149 1.731 1.731 0 0 0-.187.476.405.405 0 0 0 .3.48zm0 0M12.324.82c.024 0 .047 0 .07-.007.055-.008.11-.012.168-.012h.157a.401.401 0 0 0 0-.8l-.157-.001a1.62 1.62 0 0 0-.308.027.398.398 0 0 0-.324.461.401.401 0 0 0 .394.332zm0 0M1.602 8.8C1.82 8.8 2 8.622 2 8.399A4.403 4.403 0 0 1 6.398 4h1.036L5.719 5.719a.396.396 0 0 0 0 .562.396.396 0 0 0 .562 0l2.403-2.398a.414.414 0 0 0 .086-.13.421.421 0 0 0 0-.308.465.465 0 0 0-.086-.129L6.28.918a.396.396 0 0 0-.562 0 .4.4 0 0 0 0 .566L7.434 3.2H6.398A5.205 5.205 0 0 0 1.2 8.4c0 .222.18.402.403.402zm0 0"/>
</svg>
